icons/copilot-warning-16.svg

<svg xmlns="http://www.w3.org/2000/svg" width="16" height="16" viewBox="0 0 16 16"><path fill-rule="evenodd" d="M7.86 1.77c.05.053.097.107.14.164.043-.057.09-.111.14-.164.681-.731 1.737-.9 2.943-.765 1.23.136 2.145.527 2.724 1.26.566.716.693 1.614.693 2.485 0 .463-.035.929-.155 1.359a5.967 5.967 0 00-1.398-.616c.034-.195.053-.439.053-.743 0-.766-.123-1.242-.37-1.555-.233-.296-.693-.586-1.713-.7-1.044-.116-1.488.091-1.681.298-.204.218-.359.678-.242 1.614.06.479.172.86.332 1.158a6.014 6.014 0 00-2.92 2.144C5.926 7.904 5.372 8 4.75 8c-.652 0-1.237-.082-1.727-.291L3 7.824v4.261c.02.013.043.025.065.038a10.84 10.84 0 002.495 1.035c.21.629.522 1.21.916 1.726a11.91 11.91 0 01-2.863-.819 12.06 12.06 0 01-1.296-.641 8.815 8.815 0 01-.456-.281l-.028-.02-.006-.003-.015-.01a7.077 7.077 0 01-.235-.166c-.15-.108-.352-.26-.557-.43a5.19 5.19 0 01-.605-.58 2.167 2.167 0 01-.259-.367A1.19 1.19 0 010 11V9.736a2.75 2.75 0 011.52-2.46l.067-.033.167-.838C1.553 5.897 1.5 5.322 1.5 4.75c0-.87.127-1.77.693-2.485.579-.733 1.494-1.124 2.724-1.26 1.206-.134 2.262.034 2.944.765zM6.765 2.793c-.193-.207-.637-.414-1.681-.298-1.02.114-1.48.404-1.713.7-.247.313-.37.79-.37 1.555 0 .792.129 1.17.308 1.37.162.181.52.38 1.442.38.854 0 1.339-.236 1.638-.54.315-.323.527-.827.618-1.553.117-.936-.038-1.396-.242-1.614z"/><path fill-rule="evenodd" d="M8.498 14.81a4.5 4.5 0 105.504-7.121 4.5 4.5 0 00-5.504 7.122zM10.5 8.75a.75.75 0 011.5 0V11a.75.75 0 01-1.5 0V8.75zm.75 5.75a1 1 0 100-2 1 1 0 000 2z"/></svg>

<svg xmlns="http://www.w3.org/2000/svg" width="16" height="16" viewBox="0 0 16 16">
  <defs/>
  <path d="M7.86,1.77 C7.91,1.823 7.957,1.877 8,1.934 C8.043,1.877 8.09,1.823 8.14,1.77 C8.821,1.039 9.877,0.87 11.083,1.005 C12.313,1.141 13.228,1.532 13.807,2.265 C14.373,2.981 14.5,3.879 14.5,4.75 C14.5,5.213 14.465,5.679 14.345,6.109 C13.907,5.845 13.437,5.638 12.947,5.493 C12.981,5.298 13,5.054 13,4.75 C13,3.984 12.877,3.508 12.63,3.195 C12.397,2.899 11.937,2.609 10.917,2.495 C9.873,2.379 9.429,2.586 9.236,2.793 C9.032,3.011 8.877,3.471 8.994,4.407 C9.054,4.886 9.166,5.267 9.326,5.565 C8.155,5.963 7.136,6.711 6.406,7.709 C5.926,7.904 5.372,8 4.75,8 C4.098,8 3.513,7.918 3.023,7.709 L3,7.824 L3,12.085 C3.02,12.098 3.043,12.11 3.065,12.123 C3.85,12.571 4.688,12.918 5.56,13.158 C5.77,13.787 6.082,14.368 6.476,14.884 C5.491,14.732 4.529,14.457 3.613,14.065 C3.169,13.877 2.736,13.663 2.317,13.424 C2.162,13.335 2.01,13.241 1.861,13.143 L1.833,13.123 L1.827,13.12 L1.812,13.11 C1.733,13.056 1.654,13.001 1.577,12.944 C1.427,12.836 1.225,12.684 1.02,12.514 C0.803,12.337 0.601,12.143 0.415,11.934 C0.316,11.821 0.229,11.698 0.156,11.567 C0.057,11.394 0.004,11.199 0,11 L0,9.736 C0,8.694 0.588,7.742 1.52,7.276 L1.587,7.243 L1.754,6.405 C1.553,5.897 1.5,5.322 1.5,4.75 C1.5,3.88 1.627,2.98 2.193,2.265 C2.772,1.532 3.687,1.141 4.917,1.005 C6.123,0.871 7.179,1.039 7.861,1.77 Z M6.765,2.793 C6.572,2.586 6.128,2.379 5.084,2.495 C4.064,2.609 3.604,2.899 3.371,3.195 C3.124,3.508 3.001,3.985 3.001,4.75 C3.001,5.542 3.13,5.92 3.309,6.12 C3.471,6.301 3.829,6.5 4.751,6.5 C5.605,6.5 6.09,6.264 6.389,5.96 C6.704,5.637 6.916,5.133 7.007,4.407 C7.124,3.471 6.969,3.011 6.765,2.793 Z"/>
  <path d="M8.498,14.81 L8.498,14.811 C6.531,13.291 6.169,10.465 7.689,8.498 C9.209,6.531 12.035,6.169 14.002,7.689 C15.968,9.209 16.33,12.035 14.811,14.002 C13.291,15.968 10.464,16.33 8.498,14.81 Z M10.5,8.75 L10.5,11 C10.5,11.414 10.836,11.75 11.25,11.75 C11.664,11.75 12,11.414 12,11 L12,8.75 C12,8.336 11.664,8 11.25,8 C10.836,8 10.5,8.336 10.5,8.75 Z M11.25,14.5 C11.802,14.5 12.25,14.052 12.25,13.5 C12.25,12.948 11.802,12.5 11.25,12.5 C10.698,12.5 10.25,12.948 10.25,13.5 C10.25,14.052 10.698,14.5 11.25,14.5 Z"/>
</svg>
